static/assets/img/icons/theme/media/eject.svg

<svg height="24" viewBox="0 0 24 24" width="24" xmlns="http://www.w3.org/2000/svg"><g fill="none" fill-rule="evenodd"><path d="m0 0h24v24h-24z" opacity="0"/><g fill="#000"><path d="m9.35321926 16.3736278 7.00121184-6.0029676c.2096343-.1797444.233865-.49539823.0541206-.70503261-.0162933-.01900274-.0339906-.03675512-.0529426-.05310739l-7.00121179-6.04082222c-.20907477-.18039499-.52480239-.15714543-.70519738.05192934-.07833833.09079281-.12143664.20671643-.12143664.32663402v12.04378986c0 .2761424.22385763.5.5.5.11938295 0 .23482601-.0427156.32545597-.1204234z" transform="matrix(0 -1 1 0 2.527763 22.268473)"/><rect height="13" opacity=".3" rx=".5" transform="matrix(0 1 1 0 -5 5)" width="3" x="11" y="11"/></g></g></svg>

<svg width="24px" height="24px" viewBox="0 0 24 24" version="1.1" xmlns="http://www.w3.org/2000/svg" xmlns:xlink="http://www.w3.org/1999/xlink">
    <title>Icon For Eject</title>
    <g stroke="none" stroke-width="1" fill="none" fill-rule="evenodd">
        <rect opacity="0" x="0" y="0" width="24" height="24"></rect>
        <path d="M9.35321926,16.3736278 L16.3544311,10.3706602 C16.5640654,10.1909158 16.5882961,9.87526197 16.4085517,9.66562759 C16.3922584,9.64662485 16.3745611,9.62887247 16.3556091,9.6125202 L9.35439731,3.57169798 C9.14532254,3.39130299 8.82959492,3.41455255 8.64919993,3.62362732 C8.5708616,3.71442013 8.52776329,3.83034375 8.52776329,3.95026134 L8.52776329,15.9940512 C8.52776329,16.2701936 8.75162092,16.4940512 9.02776329,16.4940512 C9.14714624,16.4940512 9.2625893,16.4513356 9.35321926,16.3736278 Z" fill="#000000" transform="translate(12.398118, 9.870355) rotate(-450.000000) translate(-12.398118, -9.870355) "></path>
        <rect fill="#000000" opacity="0.3" transform="translate(12.500000, 17.500000) scale(-1, 1) rotate(-270.000000) translate(-12.500000, -17.500000) " x="11" y="11" width="3" height="13" rx="0.5"></rect>
    </g>
</svg>
